src/assets/svg/skills/html.svg

<svg width="256" height="290" viewBox="0 0 256 290" fill="none" xmlns="http://www.w3.org/2000/svg">
<path d="M255.11 0L231.868 260.36L127.399 289.322L23.2165 260.401L0 0H255.11Z" fill="#E44D26"/>
<path d="M127.555 267.184L211.971 243.78L231.832 21.291H127.555V267.184Z" fill="#F16529"/>
<path d="M82.3759 85.1659H127.556V53.2285H47.4727L48.2371 61.7968L56.0866 149.807H127.556V117.87H85.2945L82.3759 85.1659Z" fill="#EBEBEB"/>
<path d="M89.5735 165.776H57.5137L61.988 215.922L127.409 234.083L127.556 234.043V200.815L127.416 200.852L91.8472 191.248L89.5735 165.776Z" fill="#EBEBEB"/>
<path d="M127.445 149.808H166.772L163.065 191.228L127.445 200.842V234.068L192.918 215.923L193.398 210.527L200.903 126.447L201.683 117.871H127.445V149.808Z" fill="white"/>
<path d="M127.445 85.0879V85.1659H204.589L205.229 77.9874L206.684 61.7968L207.448 53.2285H127.445V85.0879Z" fill="white"/>
</svg>

<svg xmlns="http://www.w3.org/2000/svg" width="256" height="290" fill="none"><path fill="#E44D26" d="m255.11 0-23.242 260.36-104.469 28.962-104.183-28.921L0 0h255.11Z"/><path fill="#F16529" d="m127.555 267.184 84.416-23.404 19.861-222.489H127.555v245.893Z"/><path fill="#EBEBEB" d="M82.376 85.166h45.18V53.228H47.473l.764 8.569 7.85 88.01h71.469V117.87H85.295l-2.92-32.704ZM89.573 165.776h-32.06l4.475 50.146 65.421 18.161.147-.04v-33.228l-.14.037-35.569-9.604-2.273-25.472Z"/><path fill="#fff" d="M127.445 149.808h39.327l-3.707 41.42-35.62 9.614v33.226l65.473-18.145.48-5.396 7.505-84.08.78-8.576h-74.238v31.937ZM127.445 85.088v.078h77.144l.64-7.179 1.455-16.19.764-8.569h-80.003v31.86Z"/></svg>
